img/extensions-16.svg

<svg xmlns="http://www.w3.org/2000/svg" viewBox="0 0 16 16"><path d="M14.5 8c-1 0-1 1-1.8 1-.4 0-.7-.3-.7-.8V5c0-.6-.4-1-1-1H7.8c-.5 0-.8-.3-.8-.8 0-.8 1-.8 1-1.8C8 .6 7.1 0 6 0S4 .6 4 1.5c0 1 1 1 1 1.8 0 .4-.3.7-.8.7H1c-.6 0-1 .4-1 1v2.2c0 .5.3.8.8.8.8 0 .8-1 1.8-1C3.4 7 4 7.9 4 9s-.6 2-1.5 2c-1 0-1-1-1.8-1-.4 0-.7.3-.7.8V15c0 .6.4 1 1 1h3.2c.5 0 .8-.3.8-.8 0-.8-1-.8-1-1.8 0-.8.9-1.4 2-1.4s2 .6 2 1.5c0 1-1 1-1 1.8 0 .4.3.7.8.7H11c.6 0 1-.4 1-1v-3.2c0-.4.3-.7.8-.8.8 0 .8 1 1.8 1 .9 0 1.5-.9 1.5-2s-.7-2-1.6-2z" fill="#424c55"/></svg>

<?xml version="1.0" encoding="utf-8"?>
<!-- Generator: Adobe Illustrator 21.1.0, SVG Export Plug-In . SVG Version: 6.00 Build 0)  -->
<svg version="1.1" id="Layer_1" xmlns="http://www.w3.org/2000/svg" xmlns:xlink="http://www.w3.org/1999/xlink" x="0px" y="0px"
	 viewBox="0 0 16 16" style="enable-background:new 0 0 16 16;" xml:space="preserve">
<style type="text/css">
	.st0{fill:#424C55;}
</style>
<path class="st0" d="M14.5,8c-1,0-1,1-1.8,1C12.3,9,12,8.7,12,8.2V5c0-0.6-0.4-1-1-1H7.8C7.3,4,7,3.7,7,3.2c0-0.8,1-0.8,1-1.8
	C8,0.6,7.1,0,6,0S4,0.6,4,1.5c0,1,1,1,1,1.8C5,3.7,4.7,4,4.2,4H1C0.4,4,0,4.4,0,5v2.2C0,7.7,0.3,8,0.8,8c0.8,0,0.8-1,1.8-1
	C3.4,7,4,7.9,4,9s-0.6,2-1.5,2c-1,0-1-1-1.8-1C0.3,10,0,10.3,0,10.8V15c0,0.6,0.4,1,1,1h3.2C4.7,16,5,15.7,5,15.2c0-0.8-1-0.8-1-1.8
	C4,12.6,4.9,12,6,12s2,0.6,2,1.5c0,1-1,1-1,1.8C7,15.7,7.3,16,7.8,16H11c0.6,0,1-0.4,1-1v-3.2c0-0.4,0.3-0.7,0.8-0.8
	c0.8,0,0.8,1,1.8,1c0.9,0,1.5-0.9,1.5-2S15.4,8,14.5,8z"/>
</svg>
